(MQUINA)
(  PROVEEDOR AUTODESK)
(  MODEL GENERIC 5-AXIS AC TABLE-TABLE)
(  DESCRIPTION THIS MACHINE HAS YXAC AXIS ON THE TABLE AND Z AXIS ON THE HEAD)
(T1 D=6. CR=3. - FRESA CON PUNTA DE BOLA)
N10 G90 G94 G17 G49 G40 G80
N15 G21
N20 G28 G91 Z0.
N25 G90
N30 G69
N35 G00 A0. C0.

(DESBASTE MULTIEJE1)
N40 T1 M06
N45 S5000 M03
N50 G17 G90 G94
N55 G54
N60 G00 A0. C-21.045
N65 M08
N70 G68.2 X0. Y0. Z0. I0. J0. K-21.045
N75 G53.1
N80 G00 X23.211 Y67.633
N85 G69
N90 G43.4 H01
N95 G00 X45.95 Y54.787 Z10. A0. C-21.045
N100 Z1.953
N105 Z1.353
N110 G01 Z-0.6 F333.
N115 Y52.088 F1000.
N120 X46.592 Y51.772
N125 X47.527 Y51.061
N130 X48.462 Y50.349
N135 X49.397 Y49.422
N140 X50.331 Y48.495
N145 X51.036 Y47.589
N150 X51.741 Y46.683
N155 X52.09 Y45.988
N160 X54.8
N165 Z9.4
N170 Z9.983
N175 G00 Z10.
N180 Y-46.075
N185 Z9.959
N190 Z1.353
N195 G01 Z-0.6 F333.
N200 X52.09 F1000.
N205 X51.555 Y-46.95
N210 X50.838 Y-47.843
N215 X50.121 Y-48.736
N220 X49.248 Y-49.576
N225 X48.375 Y-50.416
N230 X47.451 Y-51.101
N235 X46.527 Y-51.786
N240 X45.989 Y-52.087
N245 Y-54.785
N250 Z9.4
N255 Z9.983
N260 G00 Z10...
...N1394825 X36.157 Y48.012 Z-99.346 A15.157 C-145280.448
N1394830 X36.878 Y47.501 Z-99.355 A14.439 C-145282.008
N1394835 X37.601 Y46.989 Z-99.364 A13.722 C-145283.602
N1394840 X38.291 Y46.457 Z-99.372 A13.077 C-145285.232
N1394845 X38.983 Y45.924 Z-99.38 A12.431 C-145286.862
N1394850 X39.549 Y45.461 Z-99.386 A11.891 C-145288.273
N1394855 X40.116 Y44.997 Z-99.391 A11.35 C-145289.683
N1394860 X40.883 Y44.343 Z-99.399 A10.606 C-145291.682
N1394865 X41.654 Y43.687 Z-99.406 A9.862 C-145293.681
N1394870 X42.152 Y43.223 Z-99.41 A9.361 C-145295.047
N1394875 X42.652 Y42.759 Z-99.414 A8.86 C-145296.414
N1394880 X43.153 Y42.294 Z-99.418 A8.36 C-145297.781
N1394885 X43.655 Y41.828 Z-99.422 A7.859 C-145299.148
N1394890 X44.519 Y40.958 Z-99.428 A6.963 C-145301.56
N1394895 X45.387 Y40.086 Z-99.433 A6.067 C-145303.973
N1394900 X45.954 Y39.47 Z-99.436 A5.458 C-145305.571
N1394905 X46.523 Y38.852 Z-99.439 A4.848 C-145307.17
N1394910 X47.051 Y38.253 Z-99.442 A4.303 C-145308.638
N1394915 X47.58 Y37.652 Z-99.444 A3.77 C-145310.077
N1394920 X48.075 Y37.042 Z-99.445 A3.247 C-145311.465
N1394925 X48.571 Y36.43 Z-99.447 A2.731 C-145312.827
N1394930 X49.013 Y35.834 Z-99.448 A2.244 C-145314.085
N1394935 X49.726 Y34.726 Z-99.449 A1.399 C-145316.238
N1394940 X49.94 Y34.342 A1.117 C-145316.945
N1394945 X50.155 Y33.956 Z-99.45 A0.835 C-145317.645
N1394950 X50.324 Y33.652 A0.613 C-145318.181
N1394955 X50.473 Y33.336 A0.39 C-145318.726
N1394960 X50.604 Y33.059 A0.195 C-145319.189
N1394965 X50.735 Y32.78 A0.
N1394970 X50.901 Y32.49
N1394975 X51.128 Y32.243
N1394980 X51.404 Y32.053
N1394985 X51.716 Y31.929
N1394990 X52.048 Y31.878
N1394995 X52.383 Y31.901
N1395000 X52.705 Y31.997
N1395005 Z-89.45
N1395010 G00 Z-88.85
N1395015 Z10.

N1395020 M09
N1395025 M05
N1395030 G28 G91 Z0.
N1395035 G90
N1395040 G49
N1395045 G92 C120.811
N1395050 G00 A0. C0.
N1395055 G28 G91 X0. Y0.
N1395060 G90
N1395065 M30